X:2096 
T:Tra va mish roish nish my ghuilley beg
T:Arrane Saveenagh
C:Tom Kermode, Bradda
O:Isle of Man
S:Traditional
Z:Clague collection
B:Kiaull Vannin #96
N:See also KV350 
M:3/4  
L:1/4
K:D 
F BB|B2 F|AG F/E/|F3 |F dd|c2 B|^A BB|c3|
d/e/ f f/e/|d3/2 c/B|B ^AB|F3 |E DE|F2 B|B cd|B3 ||

